X: 57
T:The Hangmans Noose
M:4/4
L:1/8
S:Ciaran Kelly, Moneymore, Derry (Accordian)
R:Hornpipe
H:Same composer as the Home Ruler (Frank McCollum of Ballycastle)
D:Session tape - Cross Keys, Antrim 1993
Z:Ber
nie Stocks
K:G
G2BG DGBd | g2fg d3e | =f2fe fdcA | c2cB cAFA | G2BG DGBd | g2fg d3e |\
=f2fe fdcA | GBAF G2Bc :: dg~g2 dgBg | dg~g2 a2ga | bggf gdBd |\
cBAG A2Bc | dg~g2 dgBg | dg~g2 a2ga | bggf gdBc | B2G2 G4 :|
